src/topics/icons/bem.svg

<svg height="212" preserveAspectRatio="xMidYMid" viewBox="0 0 256 212" width="256" xmlns="http://www.w3.org/2000/svg"><path d="m0 32.6915521h59.8506876v17.6031434h-59.8506876zm0-32.6915521h59.8506876v17.6031434h-59.8506876zm107.379175 65.1316306h-107.379175v17.6031435h103.355599c11.316307 0 37.721022.2514734 47.528487 16.0943025v-9.8074656c-4.777996-15.5913556-18.86051-23.8899804-43.504911-23.8899804zm.251473 32.6915521h-107.630648v17.6031433h103.355599c25.147348 0 40.990177 1.005894 47.528487 4.526523v-7.795678c-5.029469-12.3222005-26.153241-14.3339883-43.253438-14.3339883zm-.251473 82.9862473h-107.379175v-17.603143h103.355599c11.316307 0 37.721022-.251474 47.528487-16.094303v9.807466c-4.777996 15.591356-18.86051 23.88998-43.504911 23.88998zm.251473-32.691552h-107.630648v-17.603143h103.355599c25.147348 0 40.990177-1.005894 47.528487-4.526523v7.795678c-5.029469 12.3222-26.153241 14.333988-43.253438 14.333988zm69.40668 63.119843h78.962672v-10.81336h-76.699411c-6.789783 0-22.884086-.251473-28.667976-9.555992v6.035364c2.766208 9.304518 11.316306 14.333988 26.404715 14.333988zm-.251473-19.866405h78.962672v-10.813359h-76.447938c-15.339882 0-24.895874-.502947-28.667976-2.766208v4.777996c3.017682 7.544204 15.842829 8.801571 26.153242 8.801571z" fill="#010101"/></svg>

<?xml version="1.0" encoding="UTF-8" standalone="no"?>
<svg width="256px" height="212px" viewBox="0 0 256 212" version="1.1" xmlns="http://www.w3.org/2000/svg" xmlns:xlink="http://www.w3.org/1999/xlink" preserveAspectRatio="xMidYMid">
	<g fill="#010101">
		<path d="M0,32.6915521 L59.8506876,32.6915521 L59.8506876,50.2946955 L0,50.2946955 L0,32.6915521 Z M0,0 L59.8506876,0 L59.8506876,17.6031434 L0,17.6031434 L0,0 Z M107.379175,65.1316306 L0,65.1316306 L0,82.7347741 L103.355599,82.7347741 C114.671906,82.7347741 141.076621,82.9862475 150.884086,98.8290766 L150.884086,89.021611 C146.10609,73.4302554 132.023576,65.1316306 107.379175,65.1316306 L107.379175,65.1316306 Z M107.630648,97.8231827 L1.42108547e-14,97.8231827 L1.42108547e-14,115.426326 L103.355599,115.426326 C128.502947,115.426326 144.345776,116.43222 150.884086,119.952849 L150.884086,112.157171 C145.854617,99.8349705 124.730845,97.8231827 107.630648,97.8231827 L107.630648,97.8231827 Z M107.379175,180.80943 L0,180.80943 L0,163.206287 L103.355599,163.206287 C114.671906,163.206287 141.076621,162.954813 150.884086,147.111984 L150.884086,156.91945 C146.10609,172.510806 132.023576,180.80943 107.379175,180.80943 L107.379175,180.80943 Z M107.630648,148.117878 L1.42108547e-14,148.117878 L1.42108547e-14,130.514735 L103.355599,130.514735 C128.502947,130.514735 144.345776,129.508841 150.884086,125.988212 L150.884086,133.78389 C145.854617,146.10609 124.730845,148.117878 107.630648,148.117878 L107.630648,148.117878 Z M177.037328,211.237721 L256,211.237721 L256,200.424361 L179.300589,200.424361 C172.510806,200.424361 156.416503,200.172888 150.632613,190.868369 L150.632613,196.903733 C153.398821,206.208251 161.948919,211.237721 177.037328,211.237721 L177.037328,211.237721 Z M176.785855,191.371316 L255.748527,191.371316 L255.748527,180.557957 L179.300589,180.557957 C163.960707,180.557957 154.404715,180.05501 150.632613,177.791749 L150.632613,182.569745 C153.650295,190.113949 166.475442,191.371316 176.785855,191.371316 L176.785855,191.371316 Z"></path>
	</g>
</svg>
